!!!!SEGMENT: pl-wnifc--2374-n--005_mikuli-karol--sieben-lieder-op-27-du-bist-mein-fruhling.krn
!!!cenid: 18xx:3894
!!!COM: Mikuli, Karol
!!!COM-rismID: pe106110
!!!CDT: 1819-1897
!!!CNT:
!!!GTL: Sieben lieder op. 27
!!!OTL: Du bist mein Frühling
!!!PDT: 1880
!!!AGN:
!!!SMS-siglum: PL-Wnifc
!!!SMS-shelfmark: 2374/n
!!!SMS-shelfwork: 005 G
!!!SMS-variant:
!!!SMS-altvar:
!!!NIFC-rismSourceID: 1001155254
!!!NIFC-rismChildID: 1001155270
!!!NIFC-islandoraID: nifc:211968
!!!URL-pdf-islandora: https://repozytorium.nifc.pl/islandora/object/nifc%3A211968/datastream/PDF/view
!!!URL-scan: https://polish.musicsources.pl/pl/lokalizacje/galeria/druki-muzyczne/16819 @EN{Scan on Polish Music Sources Website} @PL{Skany w portalu Dziedzictwo Muzyki Polskiej w otwartym dostępie}
!!!ONB-nifc:
!!!AIN: 2 piano 1 soprn
!!!key: E
!!!filter-modern: sic -sq | shed -e "s/TX(.*):t=P:/tx$1:t=P:/LG" | shed -e "s/:rj/:RJ/L" | shed -k -e "s/([^a-gA-Gn#X-])[<>]/$1/g" | shed -e "s/LO:DY:(a|b|rj)/LO:dy:$1/L" | shed -e "s/-//B" | tie -s  | modori -m | humtr -p
!!!OMD:
!!!OMD-mod: Mit Feuer [quarter] = 100
**kern	**kern	**dynam	**kern	**text	**dynam
*part3	*part2	*part2	*part1	*part1	*part1
*staff3	*staff2	*	*staff1	*staff1	*
*I"Pianoforte.	*I"Pianoforte.	*	*I"Singstimme.	*	*
*I'pf	*I'pf	*	*I'V	*	*
*ICklav	*ICklav	*	*ICvox	*	*
*Ipiano	*Ipiano	*	*Isoprn	*	*
*IGacmp	*IGacmp	*	*IGsolo	*	*
*mI"Pianoforte	*mI"Pianoforte	*	*mI"Voce	*	*
*clefF4	*clefG2	*	*clefG2	*	*
*k[f#c#g#d#]	*k[f#c#g#d#]	*	*k[f#c#g#d#]	*	*
*E:	*E:	*	*E:	*	*
*M3/4	*M3/4	*	*M3/4	*	*
!	!	!	!LO:TX:a:B:t=Mit Feuer.:mod=	!	!
16Dn\LL 16Fn 16G# 16dn	16f#/LL 16gn	f	8.r	.	.
16D\ 16F 16G# 16d	16f#/ 16a	.	.	.	.
16D\JJ 16F 16G# 16d	16f#/JJ 16a#X	.	.	.	.
=1	=1	=1	=1	=1	=1
*	*^	*	*	*	*
(4D#\ 4Fn 4G# 4d#	(4fn^>/ 4g# 4b	2ryy	.	2.r	.	.
8C#\L) 8E 8G# 8c#	8e'/L) 8b 8ee	.	.	.	.	.
8C#\J 8E 8A 8c#	8e'/J 8b 8ee	.	.	.	.	.
16r	16r	16ryy	.	.	.	.
16C#\LL 16E 16A 16c#	16e#X/LL	16eny\LL	.	.	.	.
16C#\ 16E 16A 16c#	16f#X/	16e#\	.	.	.	.
16C#\JJ 16E 16A 16c#	16g#/JJ	16e#\JJ	.	.	.	.
=2	=2	=2	=2	=2	=2	=2
(4Cn\ 4E 4A 4cn	(4e^>/ 4a	2ryy	.	2.r	.	.
8BB\L) 8E 8B	8e'/L) 8a 8ee	.	.	.	.	.
8BB\J 8E 8B	8e'/J 8gn 8ee	.	.	.	.	.
16r	16r	16ryy	.	.	.	.
16AA#X\LL 16F# 16A#X	16e#X/LL	16c#X\LL 16eny	>	.	.	.
16AA#\ 16F# 16A#	16f#/	16c#\ 16e#	.	.	.	.
16AA#\JJ 16F# 16A#	16gn/JJ	16c#\JJ 16e#	.	.	.	.
=3	=3	=3	=3	=3	=3	=3
(4AA#X\ 4F# 4A#X	[4f#/	(4c#\ [>4en	.	2.r	.	.
16AAn\LL) 16An	16f#/LL]	16cn\LL) 16e]	.	.	.	.
16AA\ 16A	16e#X/	16c\ 16eny	.	.	.	.
16AA\ 16A	16f#/	16c\ 16e	.	.	.	.
16AA\JJ 16A	16gn/JJ	16c\JJ 16e	]]	.	.	.
4AA\ 4A	4f#/	4c\ 4e	.	.	.	.
!!LO:LB:g=original	!	!	!	!	!	!
=4	=4	=4	=4	=4	=4	=4
*^	*	*	*	*	*	*
(<16Gn/LL	2BB\	2b/	(>16B\LL 16e	<	4r	.	.
16F#/	.	.	16d#\	.	.	.	.
16G/	.	.	16e\	.	.	.	.
16G#X/JJ)	.	.	16e#X\JJ)	.	.	.	.
4A;/	.	.	4d#;>\ 4f#	[	4r;	.	.
4r	4ryy	4r	4ryy	.	16r	.	.
!	!	!	!	!	!	!	!LO:DY:a
.	.	.	.	.	16g#/	Ich	mf
.	.	.	.	.	16a/	muss,	.
.	.	.	.	.	16a#X/	ich	.
=5	=5	=5	=5	=5	=5	=5	=5
!	!	!	!	!	!	!	!LO:DY:a
*ped	*	*	*	*	*	*	*
2.G#/	2EE\	4B/ 4e 4b	4ryy	.	8.b\	muss	<
.	.	.	.	.	16b\	hin-	.
.	.	4e/	[4e\	.	4.ee^\	-aus,	.
*Xped	*	*	*	*	*	*	*
.	4GG#\	8ee/L	4e\_	.	.	.	.
.	.	8dd#/J	.	.	8b#X\	ich	[[
*v	*v	*	*	*	*	*	*
=6	=6	=6	=6	=6	=6	=6
*ped	*	*	*	*	*	*
(<<2AA\ 2A	8.b#X/L	2e\]	.	8.dd#^\	muss	.
.	16cc#/Jk	.	.	16cc#\	zu	.
.	4cc#/	.	.	4cc#\	dir,	.
!	!	!	!	!	!	!LO:DY:a
*Xped	*	*	*	*	*	*
4GG#/ 4G#	4bn/	4e#X\	.	8r	.	<
.	.	.	.	8cc#\	ich	[[
*	*v	*v	*	*	*	*
=7	=7	=7	=7	=7	=7
!	!	!	!	!	!LO:DY:a
*ped	*	*	*	*	*
4FF#/) 4F#	4f#/ [4a	f	4.aa^\	muss	f >
*Xped	*	*	*	*	*
(8FFF#/L 8FF#	(>>8c#/L 8a]	.	.	.	.
8GGG#/ 8GG#	8B/ 8e#X	.	8gg#\	es	.
8AAA/ 8AA	8c#/ 8f#	.	8ff#\	selbst	.
8AAA#X/J 8AA#X	8Gn/J 8en	.	8cc#\	dir	]]
=8	=8	=8	=8	=8	=8
*	*^	*	*	*	*
2.BBB/) 2.BB	4e/	2Gn\	.	2ee\	sa-	.
.	4A#X/	.	.	.	.	.
.	4B/)	4F#\	.	4dd#\	-gen,	.
*	*v	*v	*	*	*	*
=9	=9	=9	=9	=9	=9
!	!	!	!LO:TX:a:i:t=sehr sanf	!	!LO:DY:a
*ped	*	*	*	*	*
!	!	!LO:MO:null:mod=pp	!	!	!
2.BBB\ 2.BB	8r	.	(4.dd#\	du_	p
!	!	!LO:DY:a	!	!	!
!	!	!LO:MO:null:mod=.	!	!	!
.	(<8An</L	pp	.	.	.
.	8B</	.	.	.	.
.	8d#/	.	16ee\LL	.	.
.	.	.	16dd#\JJ)	.	.
.	8f#/	.	8cc#\	bist	.
.	8a/J)	.	8dd#\	mein	.
*Xped	*	*	*	*	*
=10	=10	=10	=10	=10	=10
*ped	*	*	*	*	*
2.BBB\ 2.BB	8r	.	(4.ff#\	Fruh-	.
.	(<8G#</L	.	.	.	.
.	8B</	.	.	.	.
.	8e/	.	8ee\)	.	.
.	8g#/	.	8b\	-ling,	.
.	8b/J)	.	8g#/	mein	.
*Xped	*	*	*	*	*
=11	=11	=11	=11	=11	=11
*ped	*	*	*	*	*
!LO:TX:a:t=P:problem:mixed beam	!LO:TX:a:i:t=cantabile	!	!	!	!LO:DY:a
!	!	!	!	!	!LO:MO:null:mod=.
(8BBB/L	(4.dd#\	.	4b\	Fruh-	p
8F#\	.	.	.	.	.
8A\	.	.	4b\	-ling,	.
8B\J	16ee\LL	.	.	.	.
.	16dd#\JJ	.	.	.	.
*Xped	*	*	*	*	*
8d#\L	8cc#\L)	.	8b^\	du	.
8f#\J)	8dd#\J	.	8a/	nur	.
=12	=12	=12	=12	=12	=12
*ped	*	*	*	*	*
!LO:TX:a:t=P:problem:mixed beam	!	!	!	!	!
(8EE/L	(4.ff#\	.	2g#/	mir	.
8G#\	.	.	.	.	.
8B\	.	.	.	.	.
8e\	8ee\L	.	.	.	.
*Xped	*	*	*	*	*
8g#\J)	8b\	.	4r	.	.
8r	8g#\J)	.	.	.	.
=13	=13	=13	=13	=13	=13
*	*^	*	*	*	*
*ped	*	*	*	*	*	*
(8GG#\L	(4.b#X/	2.f#\	.	4g#/	in	.
8F#\	.	.	.	.	.	.
8G#\	.	.	.	4gg#\	die-	.
*Xped	*	*	*	*	*	*
8B#X\	16cc#/LL	.	.	.	.	.
.	16b#/JJ	.	.	.	.	.
8d#\J)	8a#X/L	.	.	4dd#\	-sen	.
8r	8b#/J)	.	.	.	.	.
!!LO:PB:g=original	!	!	!	!	!	!
=14	=14	=14	=14	=14	=14	=14
!LO:TX:a:t=P:problem:mixed beam	!	!	!	!	!	!
*ped	*	*	*	*	*	*
!LO:SIC:s=(8CC#L	!	!	!	!	!	!
8CC#/L	(4.dd#/	[2.e\	.	(4ff#\	lich-	.
8E\	.	.	.	.	.	.
8G#\	.	.	.	4ee\)	.	.
*Xped	*	*	*	*	*	*
!LO:SIC:s=8c#J)	!	!	!	!	!	!
8c#\J	8cc#/L	.	.	.	.	.
*ped	*	*	*	*	*	*
!LO:SIC:s=(8AA#L	!	!	!	!	!	!
8AA#X/L	8f#/	.	.	4cc#\	-ten	.
!LO:SIC:s=8c#J)	!	!	!	!	!	!
8c#\J	8f##X/J)	.	.	.	.	.
*Xped	*	*	*	*	*	*
=15	=15	=15	=15	=15	=15	=15
*ped	*	*	*	*	*	*
!LO:SIC:s=(8BBL	!	!	!	!	!	!
8BB\L	(8g#/L	4e\]	.	2.b\	Ta-	.
8G#\	8b/	.	.	.	.	.
*Xped	*	*	*	*	*	*
8B\	8ee/	4g#\	<	.	.	.
!LO:SIC:s=8c##J)	!	!	!	!	!	!
8c##X\J	8ee#X/J	.	.	.	.	.
*ped	*	*	*	*	*	*
!LO:SIC:s=(8BB\L 8d#	!	!	!	!	!	!
8BB\L 8d#	8gg#/L	4an\	[ >	.	.	.
!LO:SIC:s=8BJ)	!	!	!	!	!	!
8B\J	8ff#X/J)	.	]]	.	.	.
*Xped	*	*	*	*	*	*
=16	=16	=16	=16	=16	=16	=16
*^	*	*	*	*	*	*
*ped	*	*	*	*	*	*	*
!LO:TX:a:t=P:problem:mixed beam	!	!	!	!	!	!	!
(8EE/L	4ryy	4.g#\ 4.een	2ryy	.	4e/	-gen.	.
[8E\J	.	.	.	.	.	.	.
8B/L	[2E\]	.	.	.	4r	.	.
!	!	!	!	!LO:DY:a	!	!	!
8e/	.	(>>16aa/LL	.	p	.	.	.
.	.	16gg#/J	.	.	.	.	.
*Xped	*	*	*	*	*	*	*
8d#/	.	8ff#/	4b\	.	4r	.	.
8dn/J	.	[<8ee/J) 8gg#	.	.	.	.	.
*v	*v	*	*	*	*	*	*
=17	=17	=17	=17	=17	=17	=17
*ped	*	*	*	*	*	*
!LO:TX:a:t=P:problem:mixed beam	!	!	!	!	!	!
(8E\L)] 8c#	((4ee/] 4bb	2.a\	.	2.r	.	.
8EE/	.	.	.	.	.	.
8E\	8aa/L)	.	.	.	.	.
*Xped	*	*	*	*	*	*
8E\	16ff#/L	.	.	.	.	.
.	16ee/JJ	.	.	.	.	.
8cn\	8dd#X/L	.	.	.	.	.
8E\J	8ee/J)	.	.	.	.	.
=18	=18	=18	=18	=18	=18	=18
*^	*	*	*	*	*	*
4.B/)	2.E\	(8gg#/L	2g#\	.	2.r	.	.
.	.	8ee/	.	.	.	.	.
.	.	8b/	.	.	.	.	.
(16c#X/LL	.	8g#/J)	.	.	.	.	.
16B/J	.	.	.	.	.	.	.
8A#X/	.	8g#/L	4ryy	.	.	.	.
8B/J)	.	8g#/J	.	.	.	.	.
*v	*v	*	*	*	*	*	*
*	*v	*v	*	*	*	*
!!LO:LB:g=original	!	!	!	!	!
=19	=19	=19	=19	=19	=19
*ped	*	*	*	*	*
2GG#\ 2B#X	8f#/L 8g#	p	4r	.	.
.	8f#/ 8g#	.	.	.	.
*Xped	*	*	*	*	*
.	8f#/ 8g#	.	4r	.	.
.	8f#/ 8g#	.	.	.	.
!	!	!	!	!	!LO:DY:a
4GG#/	8B#X/ 8f# 8g#	.	4g#/	Ich	p
.	8B#/J 8f# 8g#	.	.	.	.
=20	=20	=20	=20	=20	=20
!	!	!LO:MO:null:mod=.	!	!	!
4CC#/	8c#/L 8e 8g#	p	4.g#/	will	.
.	8c#/ 8e 8g#	.	.	.	.
4C#/	8c#/ 8e 8g#	.	.	.	.
.	8c#/ 8e 8g#	.	8cc#\	die	.
4r	8c#/ 8e 8g#	.	8dd#\	Ro-	.
.	8c#/J 8e 8g#	.	8ee\	-sen	.
=21	=21	=21	=21	=21	=21
4CC#/	8B#X/L 8f# 8a	.	8dd#\	nicht	.
.	8B#/J 8f# 8a	.	8ee\	mehr	.
4C#/	8c#/L 8e 8g#	.	4cc#\	sehn,	.
.	8c#/ 8e 8g#	.	.	.	.
4GG#/	8Bn/ 8d# 8g#	.	4b\	nicht	.
.	8B/J 8d# 8g#	.	.	.	.
=22	=22	=22	=22	=22	=22
8EE/L 8E	8B/L 8e 8g#	.	4.b\	mehr	.
8EE/ 8E	8B/ 8e 8g#	.	.	.	.
8EE/ 8E	8B/ 8e 8g#	.	.	.	.
8EE/J 8E	8B#X/J 8e 8g#	.	8g#/	die	.
8C#/L	8c#/L 8e 8g#	.	8e/	grü-	.
8AA/J	8c#/J 8d# 8f#	.	8f#/	-nen	.
=23	=23	=23	=23	=23	=23
4GG#/	8c#/L 8e 8g#	.	(8.g#/L	Mat-	.
.	8c#/J 8e 8g#	.	.	.	.
.	.	.	32b/LL	.	.
.	.	.	32a/JJJ)	.	.
8G#\L	8B#X/L 8d# 8g#	.	4g#/	-ten,	.
8F#\	8G#/ 8B# 8g#	.	.	.	.
8E\	8A#X/ 8c# 8g#	.	4g#/	ich	.
8D#\J	8B#/J 8d# 8g#	.	.	.	.
!!LO:LB:g=original	!	!	!	!	!
=24	=24	=24	=24	=24	=24
8C#\L	8c#/L 8e	<	4.g#/	will	.
8BBn\ 8Bn	8c#/ 8e	.	.	.	.
8AA\ 8A	8c#/ 8e	.	.	.	.
!	!	!	!	!	!LO:DY:a
8GG#\ 8G#	8c#/ 8e	.	8cc#\	nicht	<
8FF#\ 8F#	8c#/ 8e	.	8dd#\	mehr	.
8EE\J 8E	8c#/J 8e	[[	8ee\	zu	[[
=25	=25	=25	=25	=25	=25
*	*^	*	*	*	*
!	!	!	!	!	!	!LO:DY:a
2DD#/ 2D#	8.g#/L	8A\L 8c#	>	8.gg#\	Wal-	>
.	.	8A\ 8c#	.	.	.	.
.	16f#/Jk	.	.	16ff#\	-de	.
.	4f#/	8A\ 8c#	.	4ff#\	gehn,	]
.	.	8A\J 8c#	.	.	.	.
4EE/ 4E	4e/	8G#\L 8c#	.	4ee\	nach	.
.	.	8G#\J 8c#	.	.	.	.
*	*v	*v	*	*	*	*
=26	=26	=26	=26	=26	=26
4.FF#\	8A</L 8d#	]	4.dd#\	Duft	.
.	8A</ 8d#	.	.	.	.
.	8A</ 8d#	.	.	.	.
8FF##X\	8A</J 8c#	.	8cc#\	und	.
4GG#\	8G#</L 8c#	.	8ee\	Klang	.
.	8F#X</J 8d#	.	8b#X\	und	.
=27	=27	=27	=27	=27	=27
4CC#\	8E</L 8c#	.	(8.cc#\L	Schat-	.
.	8E</ 8c#	.	.	.	.
.	.	.	32ee\LL	.	.
.	.	.	32dd#\JJJ)	.	.
[<<4C#\	8E</ 8c#	.	4cc#\	-ten,	.
.	8E</J 8c#	.	.	.	.
!	!	!	!	!	!LO:DY:a
4C#\] 4c#	8c#/L 8e	.	4cc#\	ich	p
.	8c#/J 8e	.	.	.	.
=28	=28	=28	=28	=28	=28
4BB\ 4B	8c#/L 8e	.	4.cc#\	will	.
.	8c#/J 8e#X	.	.	.	.
4AA#X\ 4A#X	8c#/L 8f#	.	.	.	.
.	8c#/ 8f#	.	8cc#\	nicht	.
[4AAn\ [4An	8c#/ 8f#	.	8dd#\	mehr	.
.	8c#/J 8f#	.	8cc#\	der	.
!!LO:LB:g=original	!	!	!	!	!
=29	=29	=29	=29	=29	=29
4AA\] 4A]	8B/L 8d#	.	8b\	Lüf-	.
.	8B/J 8f#	.	16cc#\LL	-te	.
.	.	.	16dd#\JJ	.	.
[2GG#/ [2G#	8B/L 8e	.	4ee\	Zug,	.
.	8B/ 8e	.	.	.	.
.	8B/ 8e	.	4b\	nicht	.
.	8B/J 8e	.	.	.	.
=30	=30	=30	=30	=30	=30
4GG#/] 4G#]	8c#/L 8e	.	4.a/	mehr	.
.	8c#/ 8e	.	.	.	.
[2FF#/ [2F#	8c#/ 8e	.	.	.	.
.	8c#/ 8e	.	8a/	der	.
.	8c#/ 8e	.	8b\	Wel-	.
.	8c#/J 8e	.	8a/	-len	.
=31	=31	=31	=31	=31	=31
4FF#/] 4F#]	8B#X/L 8d# 8g#	<	8.g#/L	Rau-	.
.	8B#/J 8d# 8g#	.	.	.	.
.	.	.	32b/LL	.	.
.	.	.	32a/JJJ	.	.
4EE/ 4E	8G#/L 8c# 8g#	.	4g#/	-schen,	.
.	8G#/J 8c# 8g#	.	.	.	.
4DD#/ 4D#	8G#/L 8B# 8f# 8g#	.	4g#/	ich	.
.	8G#/J 8B# 8f# 8g#	[[	.	.	.
=32	=32	=32	=32	=32	=32
!	!	!	!	!	!LO:DY:a
8CC#/L 8C#	8c#/L 8e 8g#	<	4.g#/	will	<
8BBBn/ 8BBn	8c#/ 8e 8g#	.	.	.	.
8AAA/ 8AA	8c#/ 8e 8g#	.	.	.	.
8GGG#/ 8GG#	8c#/ 8e 8g#	.	8cc#\	nicht	.
8FFF#/ 8FF#	8c#/ 8e 8g#	.	8dd#\	mehr	.
8EEE/J 8EE	8c#/J 8e 8g#	[[	8ee\	der	.
=33	=33	=33	=33	=33	=33
*	*^	*	*	*	*
!	!	!	!	!	!	!LO:DY:a
2DDD#/ 2DD#	8.g#/L	8A\L 8c#	f	8.gg#\	Vö-	f
.	.	8A\ 8c#	.	.	.	.
.	16f#/Jk	.	.	16ff#\	-gel	.
.	4f#/	8A\ 8c#	.	4ff#\	Flug	.
.	.	8A\J 8c#	.	.	.	.
4EEE/ 4EE	4e/	8G#\L 8c#	.	4ee\	und	.
.	.	8G#\J 8c#	.	.	.	.
*	*v	*v	*	*	*	*
!!LO:PB:g=original	!	!	!	!	!
=34	=34	=34	=34	=34	=34
4.FFF#/ 4.FF#	8A/L 8d#	.	4.dd#\	ih-	.
.	8A/ 8d#	.	.	.	.
.	8A/ 8d#	.	.	.	.
8FFF##X/ 8FF##X	8A/J 8c#	.	8cc#\	-rem	.
4GGG#/ 4GG#	8G#/L 8c#	.	8ee\	Lie-	.
.	8F#X/J 8d#	.	8b#X\	-de	.
=35	=35	=35	=35	=35	=35
*^	*	*	*	*	*
*	*^	*	*	*	*	*
8.Gn/L	4AAA#X\ 4AA#X	4E/	[4c#/	sfz	4cc#\	lau-	.
16F#X/Jk	.	.	.	.	.	.	.
4rAyy	16AAA#\LL 16AA#	4ryy	16E</LL 16F#< 16c#]	.	4f#/	-schen.	.
.	16AA#\ 16F# 16A#X	.	16e#X/	ff	.	.	.
.	16AA#\ 16F# 16A#	.	16f#/	.	.	.	.
.	16AA#\JJ 16F# 16A#	.	16c#/JJ 16e# 16g#	.	.	.	.
4rFyy	8AA#\ 8A#	4ryy	8c#/ 8e# 8f#	.	8r	.	.
.	8ryy	.	8r	.	16r	.	.
!	!	!	!	!	!LO:TX:a:i:t=bewegter	!	!LO:DY:a
.	.	.	.	.	16cc#\	Ich	f
*v	*v	*v	*	*	*	*	*
=36	=36	=36	=36	=36	=36
*	*^	*	*	*	*
4r	4r	4ryy	.	8.cc#\	will	.
.	.	.	.	16f#/	zu	.
16r	16r	16ryy	.	4f#/	dir,	.
16AAn\LL 16F# 16An	16e#X/LL	16c#\LL 16en	ff	.	.	.
16AA\ 16F# 16A	16f#/	16c#\ 16e	.	.	.	.
16AA\JJ 16F# 16A	16gn/JJ	16c#\JJ 16e	.	.	.	.
4AA\ 4F# 4A	4c#/ 4e 4f#	4ryy	.	8r	.	.
!	!	!	!	!	!	!LO:DY:a
.	.	.	.	8ccn\	ich	f
*	*v	*v	*	*	*	*
=37	=37	=37	=37	=37	=37
*^	*	*	*	*	*
!	!	!	!	!	!	!LO:DY:a
16Gn/LL	[2.BB\	16B/LL 16e 16b	.	(2b\	will_	>
(<16F#/	.	(16d#/	.	.	.	.
16G/	.	16e/	.	.	.	.
16G#X/JJ)	.	16e#X/JJ)	.	.	.	.
[2A/	.	[2d#/ [2f#	.	.	.	.
!	!	!	!	!LO:TX:a:i:t=ritard.	!	!
.	.	.	.	8.ccn\)	.	]
.	.	.	.	16b\	zu	.
=38	=38	=38	=38	=38	=38	=38
2A;/]	2BB\]	2d#;/] 2f#]	.	2b;\	dir,	.
4r	4ryy	4r	.	16r	.	.
!	!	!	!	!LO:TX:B:a:i:t=  a tempo	!	!LO:DY:a
.	.	.	.	16g#/	ich	mf
.	.	.	.	16a/	will,	.
.	.	.	.	16a#X/	ich	.
!!LO:LB:g=original	!	!	!	!	!	!
=39	=39	=39	=39	=39	=39	=39
*	*	*^	*	*	*	*
*ped	*	*	*	*	*	*	*
2.G#/	2EE\	4B/ 4e 4b	4ryy	p	8.b\	will	.
.	.	.	.	.	16b\	hi-	.
.	.	[4e/	4ryy	.	4.ee^\	-naus,	.
.	4GG#\	8ee/L	4e\]	.	.	.	.
.	.	8dd#/J	.	.	8b#X\	ich	.
*Xped	*	*	*	*	*	*	*
*v	*v	*	*	*	*	*	*
=40	=40	=40	=40	=40	=40	=40
*ped	*	*	*	*	*	*
!LO:SIC:s=(<<2AA 2A	!	!	!	!	!	!
2AA\ 2A	(8.b#X/L	2e\	.	8.dd#\	will	.
.	16cc#/Jk)	.	.	16cc#\	zu	.
*Xped	*	*	*	*	*	*
.	4cc#/	.	.	4.cc#\	dir,	.
4GG#/ 4G#	4e#X/ 4bn	4ryy	.	.	.	.
.	.	.	.	8cc#\	ich	.
*	*v	*v	*	*	*	*
=41	=41	=41	=41	=41	=41
*ped	*	*	*	*	*
!LO:SIC:s=4FF#/ 4F#)	!	!	!	!	!
4FF#/ 4F#	(>>4f#/ [4a	.	4.aa\	will	.
*Xped	*	*	*	*	*
!LO:SIC:s=(8FFF#/L 8FF#	!	!	!	!	!
8FFF#/L 8FF#	8c#/L 8a]	.	.	.	.
8GGG#/ 8GG#	8B/ 8e#X	.	8gg#\	es	.
8AAA/ 8AA	8c#/ 8f#	.	8ff#\	selbst	.
!LO:SIC:s=8AAA#X/J 8AA#X)	!	!	!	!	!
8AAA#X/J 8AA#X	8Gn/J 8en	.	8cc#\	dir	.
=42	=42	=42	=42	=42	=42
*	*^	*	*	*	*
2.BBB/ 2.BB	4e/	2Gn\	.	2ee\	sa-	.
.	4A#X/	.	.	.	.	.
.	4B/)	4F#\	.	4dd#\	-gen,	.
*	*v	*v	*	*	*	*
=43	=43	=43	=43	=43	=43
*ped	*	*	*	*	*
!	!	!	!LO:TX:a:i:t=sehr sanft	!	!LO:DY:a
2.BBB\ 2.BB	8r	pp	(4.dd#\	du_	p
.	(<8An</L	.	.	.	.
.	8B</	.	.	.	.
.	8d#/	.	16ee\LL	.	.
.	.	.	16dd#\JJ)	.	.
.	8f#/	.	8cc#\	bist	.
.	8a/J)	.	8dd#\	mein	.
*Xped	*	*	*	*	*
=44	=44	=44	=44	=44	=44
*ped	*	*	*	*	*
2.BBB\ 2.BB	8r	.	(4.ff#\	Früh-	.
.	(<8G#</L	.	.	.	.
.	8B</	.	.	.	.
.	8e/	.	8ee\)	.	.
*Xped	*	*	*	*	*
.	8g#/	.	8b\	-ling,	.
.	8b/J)	.	8g#/	mein	.
!!LO:LB:g=original	!	!	!	!	!
=45	=45	=45	=45	=45	=45
*ped	*	*	*	*	*
!LO:TX:a:t=P:problem:mixed beam	!LO:TX:b:i:t=mit Ausdruck	!	!	!	!
!LO:SIC:s=(8BBL	!	!	!	!	!
(>8BB/L	(4.dd#\	.	4b\	Früh-	.
8F#\	.	.	.	.	.
8A\	.	.	4b\	-ling,	.
*Xped	*	*	*	*	*
8B\	16ee\LL	.	.	.	.
.	16dd#\JJ	.	.	.	.
8d#\	8cc#\L	.	8b\	du	.
8f#\J)	8dd#\J	.	8a/	nur	.
=46	=46	=46	=46	=46	=46
*ped	*	*	*	*	*
!LO:TX:a:t=P:problem:mixed beam	!	!	!	!	!
(>8E/L	4.ff#\	.	2g#/	mir	.
8G#\	.	.	.	.	.
8B\	.	.	.	.	.
*Xped	*	*	*	*	*
8e\	8ee\L	.	.	.	.
8g#\J)	8b\	.	4r	.	.
8r	8g#\J)	.	.	.	.
=47	=47	=47	=47	=47	=47
*	*^	*	*	*	*
*ped	*	*	*	*	*	*
(8GG#\L	(4.b#X/	2.f#\	.	4g#/	in	.
8F#\	.	.	.	.	.	.
8G#\	.	.	.	4gg#\	die-	.
*Xped	*	*	*	*	*	*
8B#X\	16cc#/LL	.	.	.	.	.
.	16b#/JJ	.	.	.	.	.
8d#\J)	8a#X/L	.	.	4dd#\	-sen	.
8r	8b#/J)	.	.	.	.	.
=48	=48	=48	=48	=48	=48	=48
*ped	*	*	*	*	*	*
!LO:TX:a:t=P:problem:mixed beam	!	!	!	!	!	!
(>8CC#/L	(4.dd#/	[2.e\	.	(4ff#\	lich-	.
8E\	.	.	.	.	.	.
8G#\	.	.	.	4ee\)	.	.
*Xped	*	*	*	*	*	*
8c#\J)	8cc#/L	.	.	.	.	.
*ped	*	*	*	*	*	*
!LO:TX:a:t=P:problem:mixed beam	!	!	!	!	!	!
!LO:SIC:s=(>8AA#XL	!	!	!	!	!	!
(>8AA#X/L	8f#/	.	.	4cc#\	-ten	.
8c#\J)	8f##X/J)	.	.	.	.	.
*Xped	*	*	*	*	*	*
=49	=49	=49	=49	=49	=49	=49
*ped	*	*	*	*	*	*
!LO:SIC:s=(8BBL	!	!	!	!	!	!
8BB\L	(8g#/L	4e\]	.	2.b\	Ta-	.
8G#\	8b/	.	.	.	.	.
8B\	8ee/	4g#\	.	.	.	.
*Xped	*	*	*	*	*	*
!LO:SIC:s=8c##J)	!	!	!	!	!	!
8c##X\J	8ee#X/J	.	.	.	.	.
*ped	*	*	*	*	*	*
!LO:SIC:s=(8BB\L 8d#	!	!	!	!	!	!
8BB\L 8d#	8gg#/L	4an\	.	.	.	.
!LO:SIC:s=8BJ)	!	!	!	!	!	!
8B\J	8ff#X/J)	.	.	.	.	.
*Xped	*	*	*	*	*	*
=50	=50	=50	=50	=50	=50	=50
*^	*	*	*	*	*	*
*ped	*	*	*	*	*	*	*
!LO:TX:a:t=P:problem:mixed beam	!	!	!	!	!	!	!
(8EE/L	4ryy	4.g#\ 4.een	2ryy	.	4e/	-gen.	.
[8E\J	.	.	.	.	.	.	.
8B/L	[2E\]	.	.	.	4r	.	.
8e/	.	(>>16aa/LL	.	.	.	.	.
.	.	16gg#/J	.	.	.	.	.
*Xped	*	*	*	*	*	*	*
8d#/	.	8ff#/	4b\	.	4r	.	.
8dn/J	.	[<8ee/J) 8gg#	.	.	.	.	.
*v	*v	*	*	*	*	*	*
!!LO:LB:g=original	!	!	!	!	!	!
=51	=51	=51	=51	=51	=51	=51
!LO:TX:a:t=P:problem:mixed beam	!	!	!	!	!	!
(8E\L)] 8c#	(4ee/] 4bb	2.a\	.	2.r	.	.
8EE/	.	.	.	.	.	.
8E\	8aa/L	.	.	.	.	.
8E\	16ff#/L	.	.	.	.	.
.	16ee/JJ)	.	.	.	.	.
8cn\	(>8dd#/L	.	.	.	.	.
8E\J	8ee/J)	.	.	.	.	.
=52	=52	=52	=52	=52	=52	=52
*^	*	*	*	*	*	*
4.B/)	2.E\	(8gg#/L	2g#\	.	2.r	.	.
.	.	8ee/	.	.	.	.	.
.	.	8b/	.	.	.	.	.
(16c#X/LL	.	8g#/J)	.	.	.	.	.
16B/J	.	.	.	.	.	.	.
8A#X/	.	8g#/L	4ryy	.	.	.	.
8B/J)	.	8g#/J	.	.	.	.	.
*	*	*v	*v	*	*	*	*
=53	=53	=53	=53	=53	=53	=53
8c#/L	2.E\	(>8an/L 8ee	.	2.r	.	.
8B/	.	8g#/	.	.	.	.
8G#/J	.	8B/) 8e	.	.	.	.
(<16C#/LL	.	8G#'/ 8e	.	.	.	.
16BB/J)	.	.	.	.	.	.
8AA#X/	.	8G#'/ 8e	.	.	.	.
8BB/J	.	8G#'/J 8e	.	.	.	.
*v	*v	*	*	*	*	*
=54	=54	=54	=54	=54	=54
*	*^	*	*	*	*
[2EE/ [2AAn [2Cn [2E	(8g#/L	2A\	.	2.r	.	.
.	8f#/	.	.	.	.	.
.	8e/	.	.	.	.	.
.	8cn/J	.	.	.	.	.
8EE/L] 8AA] 8C] 8E]	4A/)	4ryy	.	.	.	.
8EE/J	.	.	.	.	.	.
=55	=55	=55	=55	=55	=55	=55
*^	*	*	*	*	*	*
!	!	!LO:TX:a:i:t=legatissimo	!	!	!	!	!
!	!	!LO:TX:i:a:t=riten.	!	!	!	!	!
8e\L	2E\	(8G#</L 8e	2ryy	.	2.r	.	.
8d#\	.	8B</ 8g#	.	.	.	.	.
8c#\	.	8e/ 8a	.	.	.	.	.
8B\J	.	8g#/J 8ee	.	.	.	.	.
8cn/L	4A\	8.gg#/L	4a\	.	.	.	.
8d#/J	.	.	.	.	.	.	.
.	.	16ff#/Jk	.	.	.	.	.
*v	*v	*	*	*	*	*	*
*	*v	*v	*	*	*	*
=56	=56	=56	=56	=56	=56
4E\ 4B 4e	4g#\) 4ee	.	2.r	.	.
!	!	!LO:DY:a	!	!	!
4CC#X\ 4C#X	4E</ 4G#< 4c#X 4e	pp	.	.	.
4BBB\ 4BB	4F#</ 4B< 4d# 4f#	.	.	.	.
=57	=57	=57	=57	=57	=57
2.EEE;<<\ 2.EE	2.G#<;/ 2.B< 2.e 2.g#	.	2.r;	.	.
==	==	==	==	==	==
*-	*-	*-	*-	*-	*-
!!!system-decoration: s1{(s2,s3)}
!!!RDF**kern: > = above
!!!RDF**kern: < = below
!!!ENC: Berenika Jozajtis
!!!END: 2022-07-23
!!!ENC: Jan Barakat
!!!END: 2022-08-18
!!!ENC-modern: Andrzej Borzym
!!!END-modern: 2022-08-27
!!!YEC: Copyright 2022 Narodowy Instytut Fryderyka Chopina (https://polishscores.org)
!!!YEM: License CC-BY-4.0 (https://creativecommons.org/licenses/by/4.0)
